src/assets/outline/TruckTime.svg

<svg width="24" height="24" viewBox="0 0 24 24"  xmlns="http://www.w3.org/2000/svg">
<path d="M13 14.75H2C1.59 14.75 1.25 14.41 1.25 14V7.62C1.25 7.29999 1.44999 7.01997 1.73999 6.90997C2.03999 6.79997 2.37001 6.89001 2.57001 7.13C3.18001 7.86 4.13001 8.26999 5.07001 8.23999C5.87001 8.21999 6.60998 7.92001 7.16998 7.39001C7.42998 7.17001 7.63999 6.91 7.79999 6.62C8.10999 6.09 8.26 5.50998 8.25 4.91998C8.23 3.99998 7.83002 3.15999 7.15002 2.54999C6.91002 2.33999 6.83 2.00997 6.94 1.71997C7.05 1.42997 7.33001 1.22998 7.64001 1.22998H15C15.41 1.22998 15.75 1.56998 15.75 1.97998V11.98C15.75 13.52 14.52 14.75 13 14.75ZM2.75 13.25H13C13.69 13.25 14.25 12.69 14.25 12V2.75H9.19C9.54 3.4 9.73 4.13001 9.75 4.89001C9.77 5.76001 9.54998 6.62 9.10999 7.37C8.86999 7.79999 8.53999 8.21001 8.17999 8.51001C7.37999 9.27001 6.27999 9.72 5.10999 9.75C4.27999 9.78 3.46001 9.57 2.76001 9.19V13.25H2.75Z" />
<path d="M19 20.75H18C17.59 20.75 17.25 20.41 17.25 20C17.25 19.31 16.69 18.75 16 18.75C15.31 18.75 14.75 19.31 14.75 20C14.75 20.41 14.41 20.75 14 20.75H10C9.59 20.75 9.25 20.41 9.25 20C9.25 19.31 8.69 18.75 8 18.75C7.31 18.75 6.75 19.31 6.75 20C6.75 20.41 6.41 20.75 6 20.75H5C2.93 20.75 1.25 19.07 1.25 17V14C1.25 13.59 1.59 13.25 2 13.25H13C13.69 13.25 14.25 12.69 14.25 12V5C14.25 4.59 14.59 4.25 15 4.25H16.84C17.83 4.25 18.74 4.78001 19.23 5.64001L20.94 8.63C21.07 8.86 21.07 9.15 20.94 9.38C20.81 9.61 20.56 9.75 20.29 9.75H19C18.86 9.75 18.75 9.86 18.75 10V13C18.75 13.14 18.86 13.25 19 13.25H22C22.41 13.25 22.75 13.59 22.75 14V17C22.75 19.07 21.07 20.75 19 20.75ZM18.65 19.25H19C20.24 19.25 21.25 18.24 21.25 17V14.75H19C18.04 14.75 17.25 13.96 17.25 13V10C17.25 9.04 18.03 8.25 19 8.25L17.93 6.38C17.71 5.99 17.29 5.75 16.84 5.75H15.75V12C15.75 13.52 14.52 14.75 13 14.75H2.75V17C2.75 18.24 3.76 19.25 5 19.25H5.34998C5.67998 18.1 6.74 17.25 8 17.25C9.26 17.25 10.32 18.1 10.65 19.25H13.36C13.69 18.1 14.75 17.25 16.01 17.25C17.27 17.25 18.32 18.1 18.65 19.25Z" />
<path d="M8 22.75C6.48 22.75 5.25 21.52 5.25 20C5.25 18.48 6.48 17.25 8 17.25C9.52 17.25 10.75 18.48 10.75 20C10.75 21.52 9.52 22.75 8 22.75ZM8 18.75C7.31 18.75 6.75 19.31 6.75 20C6.75 20.69 7.31 21.25 8 21.25C8.69 21.25 9.25 20.69 9.25 20C9.25 19.31 8.69 18.75 8 18.75Z" />
<path d="M16 22.75C14.48 22.75 13.25 21.52 13.25 20C13.25 18.48 14.48 17.25 16 17.25C17.52 17.25 18.75 18.48 18.75 20C18.75 21.52 17.52 22.75 16 22.75ZM16 18.75C15.31 18.75 14.75 19.31 14.75 20C14.75 20.69 15.31 21.25 16 21.25C16.69 21.25 17.25 20.69 17.25 20C17.25 19.31 16.69 18.75 16 18.75Z" />
<path d="M22 14.75H19C18.04 14.75 17.25 13.96 17.25 13V10C17.25 9.04 18.04 8.25 19 8.25H20.29C20.56 8.25 20.81 8.39 20.94 8.63L22.65 11.63C22.71 11.74 22.75 11.87 22.75 12V14C22.75 14.41 22.41 14.75 22 14.75ZM19 9.75C18.86 9.75 18.75 9.86 18.75 10V13C18.75 13.14 18.86 13.25 19 13.25H21.25V12.2L19.85 9.75H19Z" />
<path d="M5 9.75C2.38 9.75 0.25 7.62 0.25 5C0.25 3.54 0.900029 2.18998 2.03003 1.28998C2.87003 0.619978 3.93 0.25 5 0.25C7.62 0.25 9.75 2.38 9.75 5C9.75 6.36 9.16 7.66 8.13 8.56C7.26 9.33 6.15 9.75 5 9.75ZM5 1.75C4.26 1.75 3.55997 1.99997 2.96997 2.46997C2.19997 3.07997 1.75 4.01 1.75 5C1.75 6.79 3.21 8.25 5 8.25C5.78 8.25 6.54002 7.96 7.15002 7.44C7.85002 6.82 8.25 5.94 8.25 5C8.25 3.21 6.79 1.75 5 1.75Z" />
<path d="M3.99989 6.75C3.74989 6.75 3.49988 6.62001 3.35988 6.39001C3.14988 6.03001 3.25989 5.56999 3.61989 5.35999L4.5099 4.83002V3.75C4.5099 3.34 4.8499 3 5.2599 3C5.6699 3 6.0099 3.34 6.0099 3.75V5.25C6.0099 5.51 5.86992 5.76001 5.64992 5.89001L4.39992 6.64001C4.25992 6.72001 4.12989 6.75 3.99989 6.75Z" />
</svg>

<?xml version="1.0" encoding="UTF-8"?>
<svg width="24" height="24" viewBox="0 0 24 24" xmlns="http://www.w3.org/2000/svg">
 <path d="m13 14.75h-11c-0.41 0-0.75-0.34-0.75-0.75v-6.38c0-0.32001 0.19999-0.60003 0.48999-0.71003 0.3-0.11 0.63002-0.01996 0.83002 0.22003 0.61 0.73 1.56 1.14 2.5 1.11 0.8-0.02 1.54-0.31998 2.1-0.84998 0.26-0.22 0.47001-0.48001 0.63001-0.77001 0.31-0.53 0.46001-1.11 0.45001-1.7-0.02-0.92-0.41998-1.76-1.1-2.37-0.24-0.21-0.32002-0.54002-0.21002-0.83002s0.39001-0.48999 0.70001-0.48999h7.36c0.41 0 0.75 0.34 0.75 0.75v10c0 1.54-1.23 2.77-2.75 2.77zm-10.25-1.5h10.25c0.69 0 1.25-0.56 1.25-1.25v-9.25h-5.06c0.35 0.65 0.54 1.38 0.56 2.14 0.02 0.87-0.20002 1.73-0.64001 2.48-0.24 0.42999-0.57 0.84001-0.93 1.14-0.8 0.76-1.9 1.21-3.07 1.24-0.83 0.03-1.65-0.18-2.35-0.56v4.06h-0.01001z"/>
 <path d="m19 20.75h-1c-0.41 0-0.75-0.34-0.75-0.75 0-0.69-0.56-1.25-1.25-1.25s-1.25 0.56-1.25 1.25c0 0.41-0.34 0.75-0.75 0.75h-4c-0.41 0-0.75-0.34-0.75-0.75 0-0.69-0.56-1.25-1.25-1.25s-1.25 0.56-1.25 1.25c0 0.41-0.34 0.75-0.75 0.75h-1c-2.07 0-3.75-1.68-3.75-3.75v-3c0-0.41 0.34-0.75 0.75-0.75h11c0.69 0 1.25-0.56 1.25-1.25v-7c0-0.41 0.34-0.75 0.75-0.75h1.84c0.99 0 1.9 0.53001 2.39 1.39l1.71 2.99c0.13 0.23 0.13 0.52 0 0.75s-0.38 0.37-0.65 0.37h-1.29c-0.14 0-0.25 0.11-0.25 0.25v3c0 0.14 0.11 0.25 0.25 0.25h3c0.41 0 0.75 0.34 0.75 0.75v3c0 2.07-1.68 3.75-3.75 3.75zm-0.35-1.5h0.35c1.24 0 2.25-1.01 2.25-2.25v-2.25h-2.25c-0.96 0-1.75-0.79-1.75-1.75v-3c0-0.96 0.78-1.75 1.75-1.75l-1.07-1.87c-0.22-0.39-0.64-0.63-1.09-0.63h-1.09v6.25c0 1.52-1.23 2.75-2.75 2.75h-10.25v2.25c0 1.24 1.01 2.25 2.25 2.25h0.34998c0.33-1.15 1.39-2 2.65-2s2.32 0.85 2.65 2h2.71c0.33-1.15 1.39-2 2.65-2s2.31 0.85 2.64 2z"/>
 <path d="m8 22.75c-1.52 0-2.75-1.23-2.75-2.75s1.23-2.75 2.75-2.75 2.75 1.23 2.75 2.75-1.23 2.75-2.75 2.75zm0-4c-0.69 0-1.25 0.56-1.25 1.25s0.56 1.25 1.25 1.25 1.25-0.56 1.25-1.25-0.56-1.25-1.25-1.25z"/>
 <path d="m16 22.75c-1.52 0-2.75-1.23-2.75-2.75s1.23-2.75 2.75-2.75 2.75 1.23 2.75 2.75-1.23 2.75-2.75 2.75zm0-4c-0.69 0-1.25 0.56-1.25 1.25s0.56 1.25 1.25 1.25 1.25-0.56 1.25-1.25-0.56-1.25-1.25-1.25z"/>
 <path d="m22 14.75h-3c-0.96 0-1.75-0.79-1.75-1.75v-3c0-0.96 0.79-1.75 1.75-1.75h1.29c0.27 0 0.52 0.14 0.65 0.38l1.71 3c0.06 0.11 0.1 0.24 0.1 0.37v2c0 0.41-0.34 0.75-0.75 0.75zm-3-5c-0.14 0-0.25 0.11-0.25 0.25v3c0 0.14 0.11 0.25 0.25 0.25h2.25v-1.05l-1.4-2.45h-0.85z"/>
 <path d="m5 9.75c-2.62 0-4.75-2.13-4.75-4.75 0-1.46 0.65003-2.81 1.78-3.71 0.84-0.67 1.9-1.04 2.97-1.04 2.62 0 4.75 2.13 4.75 4.75 0 1.36-0.59 2.66-1.62 3.56-0.87 0.77-1.98 1.19-3.13 1.19zm0-8c-0.74 0-1.44 0.24997-2.03 0.71997-0.77 0.61-1.22 1.54-1.22 2.53 0 1.79 1.46 3.25 3.25 3.25 0.78 0 1.54-0.29 2.15-0.81 0.7-0.62 1.1-1.5 1.1-2.44 0-1.79-1.46-3.25-3.25-3.25z"/>
 <path d="m3.9999 6.75c-0.25 0-0.50001-0.12999-0.64001-0.35999-0.21-0.36-0.09999-0.82002 0.26001-1.03l0.89001-0.52997v-1.08c0-0.41 0.34-0.75 0.75-0.75s0.75 0.34 0.75 0.75v1.5c0 0.26-0.13998 0.51001-0.35998 0.64001l-1.25 0.75c-0.14 0.08-0.27003 0.10999-0.40003 0.10999z"/>
</svg>
